svg/restart-button.svg

<?xml version="1.0" encoding="UTF-8"?>
<svg xmlns="http://www.w3.org/2000/svg" xmlns:xlink="http://www.w3.org/1999/xlink" width="32" height="32" viewBox="0 0 32 32">
<path fill-rule="nonzero" fill="rgb(0%, 0%, 0%)" fill-opacity="1" d="M 16 1.28125 C 15.539062 1.273438 15.109375 1.515625 14.875 1.914062 C 14.644531 2.3125 14.644531 2.804688 14.875 3.207031 C 15.109375 3.605469 15.539062 3.847656 16 3.839844 C 22.730469 3.839844 28.160156 9.269531 28.160156 16 C 28.160156 22.730469 22.730469 28.160156 16 28.160156 C 9.269531 28.160156 3.839844 22.730469 3.839844 16 C 3.839844 12.496094 5.316406 9.347656 7.679688 7.132812 L 7.679688 9.601562 C 7.671875 10.0625 7.914062 10.492188 8.316406 10.722656 C 8.714844 10.957031 9.207031 10.957031 9.605469 10.722656 C 10.003906 10.492188 10.246094 10.0625 10.238281 9.601562 L 10.238281 2.558594 L 3.199219 2.558594 C 2.730469 2.539062 2.289062 2.78125 2.046875 3.183594 C 1.808594 3.589844 1.808594 4.089844 2.046875 4.496094 C 2.289062 4.898438 2.730469 5.140625 3.199219 5.121094 L 6.097656 5.121094 C 3.027344 7.902344 1.277344 11.855469 1.28125 16 C 1.28125 24.113281 7.886719 30.71875 16 30.71875 C 24.113281 30.71875 30.71875 24.113281 30.71875 16 C 30.71875 7.886719 24.113281 1.28125 16 1.28125 M 16 1.28125 "/>
</svg>

<svg role="img" viewBox="0 0 32 32" height="32" width="32" xmlns="http://www.w3.org/2000/svg"><path d="M16 1.281c-.46-.008-.89.235-1.125.633-.23.399-.23.89 0 1.293.234.398.664.64 1.125.633 6.73 0 12.16 5.43 12.16 12.16S22.73 28.16 16 28.16 3.84 22.73 3.84 16c0-3.504 1.476-6.652 3.84-8.867v2.469c-.008.46.234.89.636 1.12.399.235.891.235 1.29 0 .398-.23.64-.66.632-1.12V2.559H3.2c-.469-.02-.91.222-1.152.625a1.294 1.294 0 0 0 0 1.312c.242.402.683.645 1.152.625h2.899A14.667 14.667 0 0 0 1.28 16c0 8.113 6.606 14.719 14.719 14.719S30.719 24.113 30.719 16 24.113 1.281 16 1.281m0 0"/></svg>
